images/social-tg.svg

<svg width="28" height="19" viewBox="0 0 28 19" fill="none" xmlns="http://www.w3.org/2000/svg">
<g filter="url(#filter0_d_100923_26)">
<path fill-rule="evenodd" clip-rule="evenodd" d="M23.4608 0.152905C23.6393 0.302216 23.7255 0.534898 23.6872 0.764481L21.0611 16.5214C21.0244 16.7411 20.8789 16.9273 20.6745 17.0159C20.47 17.1045 20.2346 17.0833 20.0493 16.9597L12.1708 11.7074C12.0177 11.6054 11.9145 11.4437 11.8862 11.2619C11.858 11.08 11.9074 10.8947 12.0223 10.751L14.633 7.48773L10.273 10.3944C10.077 10.525 9.82597 10.5407 9.61524 10.4353L4.36293 7.80915C4.12769 7.69153 3.98535 7.44488 4.0012 7.18235C4.01705 6.91983 4.18804 6.6921 4.43573 6.60364L22.8188 0.0382579C23.038 -0.0400244 23.2822 0.00359465 23.4608 0.152905ZM6.32626 7.32275L9.86168 9.09046L17.4231 4.0495C17.6925 3.86994 18.0525 3.91349 18.2712 4.1521C18.49 4.3907 18.5022 4.75314 18.3 5.00591L13.495 11.0121L19.9328 15.3039L22.2083 1.65058L6.32626 7.32275Z" fill="#666666"/>
</g>
<defs>
<filter id="filter0_d_100923_26" x="0" y="0" width="27.6962" height="25.0701" filterUnits="userSpaceOnUse" color-interpolation-filters="sRGB">
<feFlood flood-opacity="0" result="BackgroundImageFix"/>
<feColorMatrix in="SourceAlpha" type="matrix" values="0 0 0 0 0 0 0 0 0 0 0 0 0 0 0 0 0 0 127 0" result="hardAlpha"/>
<feOffset dy="4"/>
<feGaussianBlur stdDeviation="2"/>
<feComposite in2="hardAlpha" operator="out"/>
<feColorMatrix type="matrix" values="0 0 0 0 0 0 0 0 0 0 0 0 0 0 0 0 0 0 0.25 0"/>
<feBlend mode="normal" in2="BackgroundImageFix" result="effect1_dropShadow_100923_26"/>
<feBlend mode="normal" in="SourceGraphic" in2="effect1_dropShadow_100923_26" result="shape"/>
</filter>
</defs>
</svg>

<svg viewBox="0 0 28 19" fill="none" xmlns="http://www.w3.org/2000/svg"><g filter="url(#a)"><path fill-rule="evenodd" clip-rule="evenodd" d="M23.46.15c.18.15.27.38.23.61l-2.63 15.76a.66.66 0 0 1-1.01.44l-7.88-5.25a.66.66 0 0 1-.15-.96l2.61-3.26-4.36 2.9a.66.66 0 0 1-.65.05l-5.26-2.63a.66.66 0 0 1 .08-1.2l18.38-6.57a.66.66 0 0 1 .64.11Zm-17.13 7.17 3.53 1.77 7.56-5.04a.66.66 0 0 1 .88.96l-4.8 6 6.43 4.3 2.28-13.66-15.88 5.67Z" fill="#666"/></g><defs><filter id="a" x="0" y="0" width="27.696" height="25.07" filterUnits="userSpaceOnUse" color-interpolation-filters="sRGB"><feFlood flood-opacity="0" result="BackgroundImageFix"/><feColorMatrix in="SourceAlpha" values="0 0 0 0 0 0 0 0 0 0 0 0 0 0 0 0 0 0 127 0" result="hardAlpha"/><feOffset dy="4"/><feGaussianBlur stdDeviation="2"/><feComposite in2="hardAlpha" operator="out"/><feColorMatrix values="0 0 0 0 0 0 0 0 0 0 0 0 0 0 0 0 0 0 0.25 0"/><feBlend in2="BackgroundImageFix" result="effect1_dropShadow_100923_26"/><feBlend in="SourceGraphic" in2="effect1_dropShadow_100923_26" result="shape"/></filter></defs></svg>
